svg/instructure-canvas-dark.svg

<svg xmlns="http://www.w3.org/2000/svg" xml:space="preserve" viewBox="0 0 512 512"><path d="M74.4 255.3c0-37.4-27.8-68.9-64.9-73.4C-3 230.1-3 280.6 9.5 328.8c37.1-4.6 65-36.1 64.9-73.5m43-23.1c-12.8 0-23.2 10.4-23.2 23.2s10.4 23.2 23.2 23.2 23.2-10.4 23.2-23.2v-.1c0-12.8-10.4-23.1-23.2-23.1m320.2 23.1c0 37.4 27.8 68.9 64.9 73.4 12.5-48.2 12.5-98.7 0-146.9-37.1 4.7-65 36.2-64.9 73.5m-43-23.1c-12.8 0-23.2 10.4-23.2 23.2s10.4 23.2 23.2 23.2 23.2-10.4 23.2-23.2v-.1c0-12.8-10.4-23.1-23.2-23.1M255.5 437.6c-37.4 0-68.9 28-73.4 65.1 48.2 12.4 98.7 12.4 146.9 0-4.6-37.1-36.1-64.9-73.4-64.9m-.1-66.4c-12.8 0-23.2 10.4-23.2 23.2s10.4 23.2 23.2 23.2 23.2-10.4 23.2-23.2-10.3-23.2-23.1-23.2zm0-297.2c37.3 0 68.8-27.8 73.4-64.9-48.2-12.4-98.7-12.4-146.9 0 4.7 37.1 36.2 64.9 73.5 64.9m0 19.8c-12.8 0-23.2 10.4-23.2 23.2s10.4 23.2 23.2 23.2 23.2-10.4 23.2-23.2S268.4 94 255.6 94zm128.8 290.1c-26.3 26.4-28.9 68.3-6 97.7 42.7-25.3 78.4-61.1 103.5-103.9-29.4-22.7-71.2-20.1-97.5 6.2m-46.9-46.9c-9 9.1-9 23.7.1 32.8 9.1 9 23.7 9 32.8-.1 9-9 9-23.6 0-32.7s-23.6-9.1-32.7-.1c-.1 0-.2 0-.2.1M127.3 127.1c26.3-26.4 28.9-68.2 6-97.7-42.8 25.3-78.5 61-103.7 103.7 29.4 23 71.3 20.4 97.7-6m14.1 14.1c-9.1 9.1-9.1 23.8 0 32.8 9.1 9.1 23.8 9.1 32.8 0 9.1-9.1 9.1-23.8 0-32.8-9-9-23.7-9-32.8 0m242.9-14.3c26.4 26.3 68.2 28.9 97.7 6-25.3-42.8-61.1-78.5-104-103.8-22.9 29.6-20.2 71.5 6.3 97.8M370 173.7c9.1-9.1 9.1-23.8 0-32.8-9.1-9.1-23.8-9.1-32.8 0s-9.1 23.8 0 32.8 23.7 9 32.8 0m-242.8 210c-26.4-26.3-68.3-28.9-97.7-6 25.3 42.8 61 78.5 103.8 103.8 22.8-29.6 20.2-71.4-6.1-97.8m14.2-46.8c-9 9.1-9 23.7.1 32.8 9.1 9 23.7 9 32.8-.1 9-9 9-23.6 0-32.7-9.1-9.1-23.8-9.1-32.9 0 .1-.1 0 0 0 0"/></svg>

<?xml version="1.0" encoding="utf-8"?>
<!-- Generator: Adobe Illustrator 28.2.0, SVG Export Plug-In . SVG Version: 6.00 Build 0)  -->
<svg version="1.1" id="Layer_1" xmlns="http://www.w3.org/2000/svg" xmlns:xlink="http://www.w3.org/1999/xlink" x="0px" y="0px"
	 viewBox="0 0 512 512" style="enable-background:new 0 0 512 512;" xml:space="preserve">
<path d="M74.4,255.3c0-37.4-27.8-68.9-64.9-73.4C-3,230.1-3,280.6,9.5,328.8C46.6,324.2,74.5,292.7,74.4,255.3 M117.4,232.2
	c-12.8,0-23.2,10.4-23.2,23.2c0,12.8,10.4,23.2,23.2,23.2s23.2-10.4,23.2-23.2c0,0,0,0,0-0.1C140.6,242.5,130.2,232.2,117.4,232.2
	 M437.6,255.3c0,37.4,27.8,68.9,64.9,73.4c12.5-48.2,12.5-98.7,0-146.9C465.4,186.5,437.5,218,437.6,255.3 M394.6,232.2
	c-12.8,0-23.2,10.4-23.2,23.2c0,12.8,10.4,23.2,23.2,23.2c12.8,0,23.2-10.4,23.2-23.2c0,0,0,0,0-0.1
	C417.8,242.5,407.4,232.2,394.6,232.2 M255.5,437.6c-37.4,0-68.9,28-73.4,65.1c48.2,12.4,98.7,12.4,146.9,0
	c-4.6-37.1-36.1-64.9-73.4-64.9 M255.5,371.4c-12.8,0-23.2,10.4-23.2,23.2c0,12.8,10.4,23.2,23.2,23.2c12.8,0,23.2-10.4,23.2-23.2
	c0-12.8-10.3-23.2-23.1-23.2C255.6,371.4,255.6,371.4,255.5,371.4 M255.5,74.2c37.3,0,68.8-27.8,73.4-64.9
	C280.7-3.1,230.2-3.1,182,9.3C186.7,46.4,218.2,74.2,255.5,74.2 M255.5,94c-12.8,0-23.2,10.4-23.2,23.2s10.4,23.2,23.2,23.2
	c12.8,0,23.2-10.4,23.2-23.2S268.4,94,255.6,94C255.6,94,255.6,94,255.5,94 M384.3,384.1c-26.3,26.4-28.9,68.3-6,97.7
	c42.7-25.3,78.4-61.1,103.5-103.9C452.4,355.2,410.6,357.8,384.3,384.1 M337.4,337.2c-9,9.1-9,23.7,0.1,32.8c9.1,9,23.7,9,32.8-0.1
	c9-9,9-23.6,0-32.7s-23.6-9.1-32.7-0.1C337.5,337.1,337.4,337.1,337.4,337.2 M127.3,127.1c26.3-26.4,28.9-68.2,6-97.7
	c-42.8,25.3-78.5,61-103.7,103.7C59,156.1,100.9,153.5,127.3,127.1 M141.4,141.2c-9.1,9.1-9.1,23.8,0,32.8c9.1,9.1,23.8,9.1,32.8,0
	c9.1-9.1,9.1-23.8,0-32.8l0,0C165.2,132.2,150.5,132.2,141.4,141.2 M384.3,126.9c26.4,26.3,68.2,28.9,97.7,6
	c-25.3-42.8-61.1-78.5-104-103.8C355.1,58.7,357.8,100.6,384.3,126.9 M370,173.7c9.1-9.1,9.1-23.8,0-32.8c-9.1-9.1-23.8-9.1-32.8,0
	s-9.1,23.8,0,32.8l0,0C346.3,182.7,360.9,182.7,370,173.7 M127.2,383.7c-26.4-26.3-68.3-28.9-97.7-6c25.3,42.8,61,78.5,103.8,103.8
	C156.1,451.9,153.5,410.1,127.2,383.7 M141.4,336.9c-9,9.1-9,23.7,0.1,32.8c9.1,9,23.7,9,32.8-0.1c9-9,9-23.6,0-32.7
	C165.2,327.8,150.5,327.8,141.4,336.9C141.5,336.8,141.4,336.9,141.4,336.9"/>
</svg>
